X:345
T: Zangzu renmin xizaixin
N: C1846
O: China, Qinghai Yushu
S: I, 216, 1)]
N: Zang
R: Shange]
M: 3/8
L: 1/16
K: C
A,2A,2CDEG | A8 | d2AcAG | AGEDCD | EGDECD | A,G,A,4- | A,6
A,2A,2CDEG | A2EGCDEG | A2EGEDCA, | A,2C2DECD | A,2A,4- | A,6

